;FLAVOR:Marlin
;TIME:3442
;Filament used: 0.694574m
;Layer height: 0.1
;MINX:91.109
;MINY:91.109
;MINZ:0.2
;MAXX:128.891
;MAXY:128.891
;MAXZ:19.42
;Generated with Cura_SteamEngine 4.7.1
M140 S60
M105
M190 S60
M104 S190
M105
M109 S190
M82 ;absolute extrusion mode
; Ender 3 Custom Start G-code
G92 E0 ; Reset Extruder
G28 ; Home all axes
G1 Z2.0 F3000 ; Move Z Axis up little to prevent scratching of Heat Bed
G1 X0.1 Y20 Z0.3 F5000.0 ; Move to start position
G1 X0.1 Y200.0 Z0.3 F1500.0 E15 ; Draw the first line
G1 X0.4 Y200.0 Z0.3 F5000.0 ; Move to side a little
G1 X0.4 Y20 Z0.3 F1500.0 E30 ; Draw the second line
G92 E0 ; Reset Extruder
G1 Z2.0 F3000 ; Move Z Axis up little to prevent scratching of Heat Bed
G1 X5 Y20 Z0.3 F5000.0 ; Move over to prevent blob squish
G92 E0
G92 E0
G1 F2700 E-6
;LAYER_COUNT:240
;LAYER:0
M107
M204 S1400
M205 X5 Y5
G0 F3600 X96.681 Y96.6 Z0.2
M204 S250
;TYPE:SKIRT
G1 F2700 E0
G1 F1260 X96.838 Y96.444 E0.0057
G1 X96.954 Y96.334 E0.00982
G1 X97.378 Y95.942 E0.02469
G1 X97.617 Y95.731 E0.0329
G1 X98.136 Y95.297 E0.05033
G1 X98.373 Y95.109 E0.05812
G1 X98.796 Y94.788 E0.0718
G1 X99.015 Y94.628 E0.07878
G1 X99.128 Y94.549 E0.08233
G1 X99.597 Y94.229 E0.09696
G1 X99.851 Y94.065 E0.10475
G1 X100.381 Y93.739 E0.12077
G1 X100.656 Y93.579 E0.12897
G1 X101.141 Y93.313 E0.14321
G1 X101.341 Y93.207 E0.14904
G1 X101.494 Y93.131 E0.15344
G1 X102.036 Y92.869 E0.16895
G1 X102.306 Y92.746 E0.17659
G1 X102.863 Y92.508 E0.19219
G1 X103.164 Y92.388 E0.20054
G1 X103.758 Y92.169 E0.21685
G1 X104.05 Y92.069 E0.2248
G1 X104.609 Y91.893 E0.23989
G1 X104.908 Y91.807 E0.2479
G1 X105.522 Y91.646 E0.26425
G1 X105.838 Y91.572 E0.27261
G1 X106.437 Y91.447 E0.28837
G1 X106.737 Y91.392 E0.29623
G1 X107.126 Y91.33 E0.30637
G1 X107.309 Y91.303 E0.31114
G1 X107.771 Y91.243 E0.32314
G1 X108.175 Y91.197 E0.33361
G1 X108.469 Y91.17 E0.34122
G1 X108.643 Y91.157 E0.34571
G1 X109.172 Y91.126 E0.35936
G1 X109.485 Y91.115 E0.36742
G1 X110.119 Y91.109 E0.38376
G1 X110.42 Y91.114 E0.39151
G1 X111.033 Y91.137 E0.40731
G1 X111.358 Y91.157 E0.4157
G1 X111.956 Y91.21 E0.43116
G1 X112.25 Y91.243 E0.43878
G1 X112.833 Y91.322 E0.45393
G1 X113.134 Y91.37 E0.46178
G1 X113.769 Y91.487 E0.47841
G1 X114.108 Y91.559 E0.48734
G1 X114.714 Y91.705 E0.50339
G1 X115.027 Y91.789 E0.51174
G1 X115.64 Y91.97 E0.5282
G1 X115.931 Y92.064 E0.53608
G1 X116.5 Y92.262 E0.5516
G1 X116.793 Y92.372 E0.55966
G1 X117.323 Y92.586 E0.57438
G1 X117.597 Y92.704 E0.58207
G1 X118.183 Y92.973 E0.59867
G1 X118.475 Y93.116 E0.60705
G1 X119.04 Y93.411 E0.62346
G1 X119.332 Y93.573 E0.63207
G1 X119.818 Y93.86 E0.6466
G1 X120.061 Y94.011 E0.65397
G1 X120.596 Y94.36 E0.67042
G1 X120.864 Y94.545 E0.67881
G1 X121.363 Y94.908 E0.69471
G1 X121.603 Y95.091 E0.70248
G1 X122.068 Y95.464 E0.71783
G1 X122.317 Y95.675 E0.72624
G1 X122.789 Y96.095 E0.74251
G1 X123.008 Y96.299 E0.75022
G1 X123.404 Y96.686 E0.76448
G1 X123.555 Y96.838 E0.77
G1 X123.665 Y96.954 E0.77412
G1 X124.057 Y97.378 E0.78899
G1 X124.268 Y97.617 E0.7972
G1 X124.702 Y98.136 E0.81463
G1 X124.891 Y98.374 E0.82246
G1 X125.284 Y98.894 E0.83924
G1 X125.347 Y98.981 E0.84201
G1 X125.448 Y99.125 E0.84654
G1 X125.767 Y99.592 E0.86111
G1 X125.935 Y99.852 E0.86908
G1 X126.255 Y100.373 E0.88483
G1 X126.416 Y100.65 E0.89308
G1 X126.716 Y101.198 E0.90917
G1 X126.856 Y101.468 E0.91701
G1 X127.122 Y102.014 E0.93265
G1 X127.26 Y102.319 E0.94127
G1 X127.497 Y102.878 E0.95691
G1 X127.607 Y103.153 E0.96454
G1 X127.817 Y103.72 E0.98011
G1 X127.916 Y104.011 E0.98803
G1 X128.1 Y104.592 E1.00373
G1 X128.19 Y104.904 E1.01209
G1 X128.352 Y105.523 E1.02857
G1 X128.424 Y105.825 E1.03657
G1 X128.549 Y106.419 E1.0522
G1 X128.606 Y106.73 E1.06035
G1 X128.7 Y107.32 E1.07573
G1 X128.742 Y107.633 E1.08387
G1 X128.813 Y108.284 E1.10074
G1 X128.839 Y108.594 E1.10875
G1 X128.873 Y109.16 E1.12335
G1 X128.885 Y109.484 E1.1317
G1 X128.891 Y110.12 E1.14809
G1 X128.886 Y110.42 E1.15581
G1 X128.863 Y111.033 E1.17161
G1 X128.843 Y111.355 E1.17992
G1 X128.78 Y112.056 E1.19805
G1 X128.75 Y112.303 E1.20446
G1 X128.668 Y112.892 E1.21978
G1 X128.622 Y113.178 E1.22724
G1 X128.511 Y113.776 E1.2429
G1 X128.441 Y114.105 E1.25157
G1 X128.295 Y114.712 E1.26765
G1 X128.21 Y115.027 E1.27605
G1 X128.029 Y115.64 E1.29251
G1 X127.936 Y115.93 E1.30036
G1 X127.735 Y116.508 E1.31612
G1 X127.626 Y116.798 E1.3241
G1 X127.41 Y117.334 E1.33898
G1 X127.287 Y117.619 E1.34698
G1 X127.025 Y118.188 E1.36311
G1 X126.883 Y118.478 E1.37143
G1 X126.601 Y119.017 E1.3871
G1 X126.448 Y119.292 E1.3952
G1 X126.146 Y119.806 E1.41056
G1 X125.99 Y120.058 E1.41819
G1 X125.642 Y120.592 E1.43461
G1 X125.454 Y120.865 E1.44315
G1 X125.09 Y121.365 E1.45908
G1 X124.908 Y121.603 E1.46679
G1 X124.535 Y122.068 E1.48215
G1 X124.324 Y122.317 E1.49055
G1 X123.904 Y122.789 E1.50683
G1 X123.7 Y123.008 E1.51454
G1 X123.313 Y123.404 E1.5288
G1 X123.161 Y123.555 E1.53432
G1 X123.04 Y123.67 E1.53862
G1 X122.601 Y124.075 E1.554
G1 X122.372 Y124.276 E1.56185
G1 X121.89 Y124.68 E1.57805
G1 X121.647 Y124.874 E1.58606
G1 X121.158 Y125.245 E1.60187
G1 X120.892 Y125.436 E1.6103
G1 X120.397 Y125.773 E1.62572
G1 X120.148 Y125.934 E1.63336
G1 X119.618 Y126.26 E1.64939
G1 X119.339 Y126.422 E1.6577
G1 X118.804 Y126.715 E1.67341
G1 X118.524 Y126.86 E1.68153
G1 X117.978 Y127.125 E1.69716
G1 X117.685 Y127.258 E1.70545
G1 X117.115 Y127.5 E1.7214
G1 X116.843 Y127.608 E1.72894
G1 X116.302 Y127.809 E1.7438
G1 X116.04 Y127.901 E1.75095
G1 X115.371 Y128.111 E1.76901
G1 X115.084 Y128.193 E1.7767
G1 X114.478 Y128.352 E1.79284
G1 X114.161 Y128.427 E1.80123
G1 X113.562 Y128.552 E1.81699
G1 X113.258 Y128.608 E1.82495
G1 X112.672 Y128.701 E1.84023
G1 X112.373 Y128.741 E1.848
G1 X111.759 Y128.809 E1.86392
G1 X111.551 Y128.829 E1.8693
G1 X111.387 Y128.841 E1.87353
G1 X110.831 Y128.874 E1.88788
G1 X110.513 Y128.885 E1.89607
G1 X109.883 Y128.891 E1.9123
G1 X109.584 Y128.887 E1.92
G1 X108.966 Y128.864 E1.93593
G1 X108.64 Y128.843 E1.94435
G1 X108.086 Y128.794 E1.95867
G1 X107.846 Y128.769 E1.96489
G1 X107.676 Y128.748 E1.9693
G1 X107.103 Y128.668 E1.9842
G1 X106.82 Y128.622 E1.99158
G1 X106.222 Y128.511 E2.00725
G1 X105.891 Y128.44 E2.01597
G1 X105.285 Y128.294 E2.03202
G1 X104.967 Y128.209 E2.0405
G1 X104.349 Y128.026 E2.0571
G1 X104.064 Y127.934 E2.06482
G1 X103.529 Y127.748 E2.07941
G1 X103.242 Y127.64 E2.0873
G1 X102.653 Y127.403 E2.10366
G1 X102.375 Y127.284 E2.11145
G1 X101.821 Y127.03 E2.12714
G1 X101.521 Y126.883 E2.13575
G1 X100.982 Y126.601 E2.15142
G1 X100.708 Y126.449 E2.15949
G1 X100.192 Y126.146 E2.1749
G1 X99.934 Y125.986 E2.18272
G1 X99.401 Y125.638 E2.19911
G1 X99.146 Y125.462 E2.20709
G1 X98.689 Y125.131 E2.22163
G1 X98.52 Y125.005 E2.22706
G1 X98.372 Y124.889 E2.2319
G1 X97.92 Y124.524 E2.24686
G1 X97.699 Y124.337 E2.25432
G1 X97.229 Y123.921 E2.27049
G1 X97.003 Y123.711 E2.27843
G1 X96.599 Y123.317 E2.29297
G1 X96.443 Y123.16 E2.29867
G1 X96.328 Y123.039 E2.30297
G1 X95.923 Y122.6 E2.31835
G1 X95.721 Y122.37 E2.32624
G1 X95.318 Y121.889 E2.3424
G1 X95.124 Y121.646 E2.35041
G1 X94.754 Y121.158 E2.36618
G1 X94.564 Y120.893 E2.37458
G1 X94.227 Y120.398 E2.39
G1 X94.065 Y120.147 E2.3977
G1 X93.738 Y119.615 E2.41378
G1 X93.579 Y119.342 E2.42192
G1 X93.313 Y118.857 E2.43617
G1 X93.207 Y118.657 E2.442
G1 X93.133 Y118.509 E2.44626
G1 X92.871 Y117.968 E2.46174
G1 X92.745 Y117.69 E2.4696
G1 X92.503 Y117.123 E2.48548
G1 X92.388 Y116.834 E2.49349
G1 X92.185 Y116.286 E2.50855
G1 X92.081 Y115.983 E2.5168
G1 X91.891 Y115.379 E2.53311
G1 X91.804 Y115.078 E2.54118
G1 X91.645 Y114.47 E2.55736
G1 X91.573 Y114.163 E2.56548
G1 X91.448 Y113.566 E2.58119
G1 X91.392 Y113.261 E2.58918
G1 X91.33 Y112.872 E2.59933
G1 X91.304 Y112.691 E2.60404
G1 X91.23 Y112.118 E2.61892
G1 X91.197 Y111.824 E2.62654
G1 X91.18 Y111.654 E2.63094
G1 X91.169 Y111.525 E2.63427
G1 X91.157 Y111.356 E2.63864
G1 X91.126 Y110.828 E2.65226
G1 X91.115 Y110.513 E2.66038
G1 X91.109 Y109.877 E2.67676
G1 X91.114 Y109.577 E2.68449
G1 X91.137 Y108.964 E2.70029
G1 X91.157 Y108.637 E2.70873
G1 X91.21 Y108.041 E2.72414
G1 X91.243 Y107.749 E2.73171
G1 X91.322 Y107.166 E2.74686
G1 X91.357 Y106.936 E2.75285
G1 X91.382 Y106.794 E2.75657
G1 X91.491 Y106.211 E2.77184
G1 X91.56 Y105.887 E2.78037
G1 X91.708 Y105.273 E2.79664
G1 X91.792 Y104.959 E2.80501
G1 X91.972 Y104.35 E2.82137
G1 X92.067 Y104.055 E2.82935
G1 X92.253 Y103.522 E2.84389
G1 X92.36 Y103.238 E2.85171
G1 X92.591 Y102.665 E2.86762
G1 X92.708 Y102.393 E2.87525
G1 X92.97 Y101.821 E2.89145
G1 X93.109 Y101.537 E2.8996
G1 X93.366 Y101.042 E2.91396
G1 X93.468 Y100.853 E2.9195
G1 X93.575 Y100.666 E2.92504
G1 X93.855 Y100.19 E2.93927
G1 X94.011 Y99.938 E2.9469
G1 X94.36 Y99.403 E2.96335
G1 X94.535 Y99.148 E2.97132
G1 X94.865 Y98.692 E2.98582
G1 X95.005 Y98.505 E2.99184
G1 X95.113 Y98.368 E2.99633
G1 X95.474 Y97.921 E3.01113
G1 X95.661 Y97.7 E3.01858
G1 X96.078 Y97.229 E3.03479
G1 X96.288 Y97.003 E3.04273
G1 X96.681 Y96.6 E3.05723
M204 S1400
G0 F3600 X96.967 Y96.879
M204 S250
G1 F1260 X97.117 Y96.731 E3.06266
G1 X97.226 Y96.627 E3.06654
G1 X97.65 Y96.235 E3.08141
G1 X97.874 Y96.038 E3.0891
G1 X98.393 Y95.604 E3.10652
G1 X98.615 Y95.427 E3.11383
G1 X99.038 Y95.106 E3.12751
G1 X99.248 Y94.954 E3.13419
G1 X99.353 Y94.88 E3.1375
G1 X99.822 Y94.56 E3.15212
G1 X100.06 Y94.405 E3.15944
G1 X100.59 Y94.079 E3.17546
G1 X100.849 Y93.929 E3.18317
G1 X101.334 Y93.663 E3.19742
G1 X101.525 Y93.562 E3.20298
G1 X101.668 Y93.491 E3.2071
G1 X102.21 Y93.229 E3.2226
G1 X102.463 Y93.114 E3.22976
G1 X103.02 Y92.876 E3.24536
G1 X103.302 Y92.763 E3.25319
G1 X103.896 Y92.544 E3.26949
G1 X104.17 Y92.451 E3.27694
G1 X104.729 Y92.275 E3.29204
G1 X105.009 Y92.194 E3.29955
G1 X105.623 Y92.033 E3.3159
G1 X105.919 Y91.964 E3.32372
G1 X106.518 Y91.839 E3.33949
G1 X106.8 Y91.787 E3.34687
G1 X107.189 Y91.725 E3.35702
G1 X107.36 Y91.7 E3.36147
G1 X107.926 Y91.627 E3.37617
G1 X108.22 Y91.594 E3.38379
G1 X108.503 Y91.568 E3.39111
G1 X108.666 Y91.556 E3.39532
G1 X109.195 Y91.525 E3.40897
G1 X109.489 Y91.515 E3.41654
G1 X110.123 Y91.509 E3.43287
G1 X110.405 Y91.513 E3.44014
G1 X111.018 Y91.536 E3.45594
G1 X111.323 Y91.555 E3.46381
G1 X111.921 Y91.608 E3.47927
G1 X112.197 Y91.639 E3.48642
G1 X112.78 Y91.718 E3.50158
G1 X113.061 Y91.763 E3.50891
G1 X113.696 Y91.88 E3.52554
G1 X114.014 Y91.948 E3.53391
G1 X114.62 Y92.094 E3.54997
G1 X114.914 Y92.173 E3.55781
G1 X115.527 Y92.354 E3.57427
G1 X115.8 Y92.441 E3.58165
G1 X116.369 Y92.639 E3.59717
G1 X116.643 Y92.742 E3.60471
G1 X117.173 Y92.956 E3.61943
G1 X117.43 Y93.067 E3.62664
G1 X118.016 Y93.336 E3.64325
G1 X118.29 Y93.47 E3.65111
G1 X118.855 Y93.765 E3.66752
G1 X119.129 Y93.918 E3.67561
G1 X119.615 Y94.205 E3.69014
G1 X119.842 Y94.346 E3.69703
G1 X120.377 Y94.695 E3.71348
G1 X120.629 Y94.868 E3.72135
G1 X121.128 Y95.231 E3.73724
G1 X121.352 Y95.403 E3.74452
G1 X121.817 Y95.776 E3.75987
G1 X122.052 Y95.974 E3.76779
G1 X122.524 Y96.394 E3.78406
G1 X122.729 Y96.585 E3.79128
G1 X123.125 Y96.972 E3.80554
G1 X123.268 Y97.117 E3.81078
G1 X123.372 Y97.226 E3.81467
G1 X123.764 Y97.65 E3.82954
G1 X123.961 Y97.874 E3.83722
G1 X124.395 Y98.393 E3.85465
G1 X124.572 Y98.616 E3.86198
G1 X124.96 Y99.129 E3.87855
G1 X125.023 Y99.216 E3.88131
G1 X125.117 Y99.351 E3.88555
G1 X125.436 Y99.818 E3.90012
G1 X125.595 Y100.062 E3.90762
G1 X125.915 Y100.583 E3.92337
G1 X126.065 Y100.842 E3.93108
G1 X126.365 Y101.39 E3.94717
G1 X126.496 Y101.643 E3.95451
G1 X126.762 Y102.189 E3.97015
G1 X126.892 Y102.475 E3.97824
G1 X127.129 Y103.034 E3.99388
G1 X127.231 Y103.292 E4.00102
G1 X127.441 Y103.859 E4.0166
G1 X127.535 Y104.132 E4.02403
G1 X127.719 Y104.713 E4.03973
G1 X127.804 Y105.005 E4.04756
G1 X127.966 Y105.624 E4.06405
G1 X128.032 Y105.907 E4.07153
G1 X128.157 Y106.501 E4.08716
G1 X128.211 Y106.793 E4.09481
G1 X128.305 Y107.383 E4.1102
G1 X128.345 Y107.676 E4.11782
G1 X128.416 Y108.327 E4.13468
G1 X128.44 Y108.618 E4.14221
G1 X128.474 Y109.184 E4.15681
G1 X128.485 Y109.487 E4.16462
G1 X128.491 Y110.123 E4.181
G1 X128.487 Y110.405 E4.18827
G1 X128.464 Y111.018 E4.20407
G1 X128.445 Y111.32 E4.21186
G1 X128.396 Y111.876 E4.22624
G1 X128.374 Y112.084 E4.23162
G1 X128.354 Y112.248 E4.23588
G1 X128.272 Y112.837 E4.2512
G1 X128.228 Y113.105 E4.25819
G1 X128.117 Y113.703 E4.27386
G1 X128.052 Y114.011 E4.28196
G1 X127.906 Y114.618 E4.29804
G1 X127.826 Y114.914 E4.30594
G1 X127.645 Y115.527 E4.3224
G1 X127.558 Y115.799 E4.32976
G1 X127.357 Y116.377 E4.34552
G1 X127.255 Y116.649 E4.353
G1 X127.039 Y117.185 E4.36789
G1 X126.924 Y117.451 E4.37535
G1 X126.662 Y118.02 E4.39149
G1 X126.528 Y118.292 E4.3993
G1 X126.246 Y118.831 E4.41496
G1 X126.103 Y119.089 E4.42256
G1 X125.801 Y119.603 E4.43792
G1 X125.655 Y119.84 E4.44509
G1 X125.307 Y120.374 E4.4615
G1 X125.131 Y120.629 E4.46948
G1 X124.767 Y121.129 E4.48541
G1 X124.596 Y121.352 E4.49265
G1 X124.223 Y121.817 E4.50801
G1 X124.025 Y122.052 E4.51592
G1 X123.605 Y122.524 E4.53219
G1 X123.414 Y122.729 E4.53941
G1 X123.027 Y123.125 E4.55367
G1 X122.882 Y123.268 E4.55892
G1 X122.768 Y123.376 E4.56296
G1 X122.329 Y123.781 E4.57835
G1 X122.115 Y123.969 E4.58568
G1 X121.633 Y124.373 E4.60188
G1 X121.406 Y124.555 E4.60938
G1 X120.917 Y124.926 E4.62519
G1 X120.667 Y125.106 E4.63312
G1 X120.172 Y125.443 E4.64854
G1 X119.939 Y125.594 E4.6557
G1 X119.409 Y125.92 E4.67172
G1 X119.147 Y126.071 E4.67951
G1 X118.612 Y126.364 E4.69522
G1 X118.35 Y126.5 E4.70282
G1 X117.804 Y126.765 E4.71846
G1 X117.529 Y126.89 E4.72624
G1 X116.959 Y127.132 E4.74219
G1 X116.704 Y127.233 E4.74925
G1 X116.163 Y127.434 E4.76412
G1 X115.913 Y127.521 E4.77093
G1 X115.252 Y127.729 E4.78878
G1 X114.983 Y127.807 E4.796
G1 X114.377 Y127.966 E4.81213
G1 X114.08 Y128.035 E4.81999
G1 X113.481 Y128.16 E4.83575
G1 X113.195 Y128.213 E4.84324
G1 X112.609 Y128.306 E4.85852
G1 X112.329 Y128.344 E4.8658
G1 X111.715 Y128.412 E4.88171
G1 X111.517 Y128.43 E4.88683
G1 X111.363 Y128.441 E4.89081
G1 X110.807 Y128.474 E4.90515
G1 X110.509 Y128.485 E4.91283
G1 X109.879 Y128.491 E4.92906
G1 X109.599 Y128.487 E4.93627
G1 X108.981 Y128.464 E4.9522
G1 X108.675 Y128.445 E4.9601
G1 X108.121 Y128.396 E4.97442
G1 X107.891 Y128.371 E4.98038
G1 X107.731 Y128.351 E4.98454
G1 X107.158 Y128.271 E4.99944
G1 X106.893 Y128.228 E5.00635
G1 X106.295 Y128.117 E5.02202
G1 X105.985 Y128.051 E5.03018
G1 X105.379 Y127.905 E5.04624
G1 X105.08 Y127.825 E5.05421
G1 X104.462 Y127.642 E5.07081
G1 X104.196 Y127.556 E5.07801
G1 X103.661 Y127.37 E5.0926
G1 X103.391 Y127.269 E5.10002
G1 X102.802 Y127.032 E5.11638
G1 X102.541 Y126.92 E5.12369
G1 X101.987 Y126.666 E5.13939
G1 X101.707 Y126.528 E5.14743
G1 X101.168 Y126.246 E5.1631
G1 X100.911 Y126.104 E5.17066
G1 X100.395 Y125.801 E5.18607
G1 X100.153 Y125.651 E5.19341
G1 X99.62 Y125.303 E5.2098
G1 X99.38 Y125.138 E5.2173
G1 X98.923 Y124.807 E5.23184
G1 X98.763 Y124.687 E5.23699
G1 X98.623 Y124.578 E5.24156
G1 X98.171 Y124.213 E5.25652
G1 X97.964 Y124.038 E5.2635
G1 X97.494 Y123.622 E5.27967
G1 X97.282 Y123.424 E5.28714
G1 X96.878 Y123.03 E5.30168
G1 X96.73 Y122.881 E5.30709
G1 X96.622 Y122.767 E5.31113
G1 X96.217 Y122.328 E5.32652
G1 X96.028 Y122.113 E5.33389
G1 X95.625 Y121.632 E5.35005
G1 X95.443 Y121.404 E5.35757
G1 X95.073 Y120.916 E5.37334
G1 X94.894 Y120.668 E5.38122
G1 X94.557 Y120.173 E5.39664
G1 X94.405 Y119.938 E5.40385
G1 X94.078 Y119.406 E5.41993
G1 X93.929 Y119.149 E5.42758
G1 X93.663 Y118.664 E5.44183
G1 X93.562 Y118.473 E5.4474
G1 X93.493 Y118.334 E5.45139
G1 X93.231 Y117.793 E5.46688
G1 X93.113 Y117.533 E5.47423
G1 X92.871 Y116.966 E5.49011
G1 X92.763 Y116.695 E5.49762
G1 X92.56 Y116.147 E5.51267
G1 X92.463 Y115.863 E5.5204
G1 X92.273 Y115.259 E5.53671
G1 X92.191 Y114.977 E5.54428
G1 X92.032 Y114.369 E5.56046
G1 X91.964 Y114.081 E5.56809
G1 X91.839 Y113.484 E5.5838
G1 X91.787 Y113.198 E5.59128
G1 X91.725 Y112.809 E5.60143
G1 X91.7 Y112.639 E5.60585
G1 X91.627 Y112.073 E5.62055
G1 X91.594 Y111.779 E5.62817
G1 X91.568 Y111.491 E5.63562
G1 X91.556 Y111.333 E5.6397
G1 X91.525 Y110.805 E5.65333
G1 X91.515 Y110.51 E5.66093
G1 X91.509 Y109.874 E5.67731
G1 X91.513 Y109.592 E5.68457
G1 X91.536 Y108.979 E5.70037
G1 X91.556 Y108.673 E5.70827
